X: 3404
T: Niel Gow's Farewell to Whisky
P: Niel Gow's Farewell to Whisky
C:Niel Gow's Fifth Coll. (1809)
R:Reel (5x48) AABAAB
B:RSCDS 34-4
Z:Anselm Lingnau <anselm@strathspey.org>
M:2/4
L:1/16
K:C
|:ED|"C"C2c2 cBce|"F"d2A2 A2c2|"C"G2c2 "G"dcde|"C"g2e2 "C7"e3g|
     "F"a2bc' "C"g2fe|"F"fe"D7"dc d2"G"e2|"C"G2c2 "G7"edcd|"C"e2c2 c2:|
|:a2|"C"g2e2 c'2e2|"Dm"fedc "G"d2e2|"C"g2e2 c'2ef|g2c'2 "C7"c'2g2|
     "F"a2bc' "C"g3e|"Dm"fe"D7"dc "G"d2e2|"C"G3c "G7"edcd|"C"e2c2 c2:|
%%center Book34/3404-Niel_Gows_Farewell_to_Whisky-AL.abc

%%sep 1 1 500
%%sep 1 1 500

